fonts/svg/gear-16.svg

<?xml version="1.0" encoding="UTF-8" standalone="no"?>
<svg
   xmlns:dc="http://purl.org/dc/elements/1.1/"
   xmlns:cc="http://creativecommons.org/ns#"
   xmlns:rdf="http://www.w3.org/1999/02/22-rdf-syntax-ns#"
   xmlns:svg="http://www.w3.org/2000/svg"
   xmlns="http://www.w3.org/2000/svg"
   xmlns:sodipodi="http://sodipodi.sourceforge.net/DTD/sodipodi-0.dtd"
   xmlns:inkscape="http://www.inkscape.org/namespaces/inkscape"
   width="16"
   height="16"
   viewBox="0 0 16 16"
   version="1.1"
   id="svg37427"
   sodipodi:docname="gear-16.svg"
   inkscape:version="1.0.1 (c497b03c, 2020-09-10)">
  <metadata
     id="metadata37433">
    <rdf:RDF>
      <cc:Work
         rdf:about="">
        <dc:format>image/svg+xml</dc:format>
        <dc:type
           rdf:resource="http://purl.org/dc/dcmitype/StillImage" />
      </cc:Work>
    </rdf:RDF>
  </metadata>
  <defs
     id="defs37431" />
  <sodipodi:namedview
     pagecolor="#ffffff"
     bordercolor="#666666"
     borderopacity="1"
     objecttolerance="10"
     gridtolerance="10"
     guidetolerance="10"
     inkscape:pageopacity="0"
     inkscape:pageshadow="2"
     inkscape:window-width="689"
     inkscape:window-height="480"
     id="namedview37429"
     showgrid="false"
     inkscape:zoom="38.8125"
     inkscape:cx="7.2270531"
     inkscape:cy="6.4283414"
     inkscape:window-x="0"
     inkscape:window-y="23"
     inkscape:window-maximized="0"
     inkscape:current-layer="svg37427" />
  <path
     fill-rule="evenodd"
     d="m 7.429,1.525 c 0.3799502,-0.03303 0.7620498,-0.03303 1.142,0 0.036,0.003 0.108,0.036 0.137,0.146 l 0.289,1.105 c 0.147,0.56 0.55,0.967 0.997,1.189 0.174,0.086 0.341,0.183 0.501,0.29 0.417,0.278 0.97,0.423 1.53,0.27 l 1.102,-0.303 c 0.11,-0.03 0.175,0.016 0.195,0.046 0.219,0.31 0.41,0.641 0.573,0.989 0.014,0.031 0.022,0.11 -0.059,0.19 l -0.815,0.806 c -0.411,0.406 -0.562,0.957 -0.53,1.456 0.01232,0.1938045 0.01232,0.3881955 0,0.582 -0.032,0.499 0.119,1.05 0.53,1.456 l 0.815,0.806 c 0.08,0.08 0.073,0.159 0.059,0.19 -0.161508,0.346212 -0.353252,0.677497 -0.573,0.99 -0.02,0.029 -0.086,0.074 -0.195,0.045 l -1.103,-0.303 c -0.559,-0.153 -1.112,-0.008 -1.529,0.27 -0.16,0.107 -0.327,0.204 -0.5,0.29 -0.449,0.222 -0.851,0.628 -0.998,1.189 l -0.289,1.105 c -0.029,0.11 -0.101,0.143 -0.137,0.146 -0.3799545,0.03293 -0.7620455,0.03293 -1.142,0 C 7.393,14.472 7.321,14.438 7.292,14.329 L 7.003,13.224 C 6.856,12.664 6.453,12.257 6.006,12.035 5.8329517,11.949181 5.6656058,11.852314 5.505,11.745 5.088,11.467 4.535,11.322 3.975,11.475 L 2.873,11.778 C 2.763,11.808 2.698,11.762 2.678,11.732 2.458294,11.419821 2.266551,11.088872 2.105,10.743 2.091,10.712 2.083,10.633 2.164,10.553 L 2.979,9.747 C 3.39,9.341 3.541,8.79 3.509,8.291 3.4966802,8.0971956 3.4966802,7.9028044 3.509,7.709 3.541,7.21 3.39,6.659 2.979,6.253 L 2.164,5.447 C 2.084,5.367 2.091,5.288 2.105,5.257 2.2662568,4.9106571 2.458013,4.5793505 2.678,4.267 2.698,4.238 2.764,4.192 2.873,4.222 L 3.976,4.525 C 4.535,4.678 5.088,4.533 5.505,4.255 5.665,4.148 5.832,4.051 6.005,3.965 6.454,3.743 6.856,3.337 7.003,2.776 L 7.292,1.671 C 7.321,1.561 7.393,1.528 7.429,1.525 Z M 8,0 C 7.764,0 7.53,0.01 7.299,0.03 6.556,0.095 6.009,0.645 5.841,1.291 L 5.551,2.397 C 5.534,2.463 5.473,2.555 5.34,2.621 5.1092752,2.7351883 4.8861465,2.8641219 4.672,3.007 4.549,3.089 4.439,3.097 4.372,3.078 L 3.27,2.776 C 2.626,2.599 1.878,2.796 1.45,3.406 1.1799715,3.7901556 0.94439004,4.1974036 0.746,4.623 0.431,5.298 0.635,6.045 1.109,6.514 L 1.924,7.32 c 0.05,0.048 0.098,0.147 0.088,0.294 -0.016343,0.2570739 -0.016343,0.5149261 0,0.772 C 2.022,8.533 1.974,8.632 1.924,8.68 L 1.109,9.486 c -0.474,0.469 -0.678,1.216 -0.363,1.891 0.2,0.428 0.436,0.835 0.704,1.218 0.428,0.609 1.176,0.806 1.82,0.63 l 1.103,-0.303 c 0.066,-0.019 0.176,-0.011 0.299,0.071 0.213,0.143 0.436,0.272 0.668,0.386 0.133,0.066 0.194,0.158 0.212,0.224 l 0.289,1.106 c 0.169,0.646 0.715,1.196 1.458,1.26 0.4664537,0.04055 0.9355463,0.04055 1.402,0 0.743,-0.064 1.29,-0.614 1.458,-1.26 l 0.29,-1.106 c 0.017,-0.066 0.078,-0.158 0.211,-0.224 0.230743,-0.114154 0.453874,-0.243089 0.668,-0.386 0.123,-0.082 0.233,-0.09 0.3,-0.071 l 1.102,0.302 c 0.644,0.177 1.392,-0.02 1.82,-0.63 0.268,-0.382 0.505,-0.789 0.704,-1.217 0.315,-0.675 0.111,-1.422 -0.364,-1.891 L 14.076,8.68 c -0.05,-0.048 -0.098,-0.147 -0.088,-0.294 0.0163,-0.2570752 0.0163,-0.5149248 0,-0.772 -0.01,-0.147 0.039,-0.246 0.088,-0.294 L 14.89,6.514 C 15.365,6.045 15.569,5.298 15.254,4.623 15.055593,4.1970952 14.820014,3.7895165 14.55,3.405 14.122,2.796 13.374,2.599 12.73,2.775 L 11.627,3.078 C 11.561,3.097 11.451,3.089 11.328,3.007 11.113858,2.8641149 10.890729,2.7351809 10.66,2.621 10.527,2.555 10.466,2.463 10.448,2.397 L 10.16,1.29 C 9.99,0.645 9.444,0.095 8.701,0.031 8.4678913,0.01053825 8.2340049,1.9519668e-4 8,0 Z m 1.5,8 c 0,1.9999991 -3,1.9999991 -3,0 0,-1.9999991 3,-1.9999991 3,0 z M 5,8 c 0,3.999998 6,3.999998 6,0 C 11,4.0000017 5,4.0000017 5,8 Z"
     id="path37425"
     sodipodi:nodetypes="cccccccccccccccccccccccccccccccccccccccccccccccccccccccccccccccccccccccccccccccccccccccccccccccccccssssss" />
</svg>

<svg xmlns="http://www.w3.org/2000/svg" width="16" height="16" viewBox="0 0 16 16"><path fill-rule="evenodd" d="M7.429 1.525a6.593 6.593 0 011.142 0c.036.003.108.036.137.146l.289 1.105c.147.56.55.967.997 1.189.174.086.341.183.501.29.417.278.97.423 1.53.27l1.102-.303c.11-.03.175.016.195.046.219.31.41.641.573.989.014.031.022.11-.059.19l-.815.806c-.411.406-.562.957-.53 1.456a4.588 4.588 0 010 .582c-.032.499.119 1.05.53 1.456l.815.806c.08.08.073.159.059.19a6.494 6.494 0 01-.573.99c-.02.029-.086.074-.195.045l-1.103-.303c-.559-.153-1.112-.008-1.529.27-.16.107-.327.204-.5.29-.449.222-.851.628-.998 1.189l-.289 1.105c-.029.11-.101.143-.137.146a6.613 6.613 0 01-1.142 0c-.036-.003-.108-.037-.137-.146l-.289-1.105c-.147-.56-.55-.967-.997-1.189a4.502 4.502 0 01-.501-.29c-.417-.278-.97-.423-1.53-.27l-1.102.303c-.11.03-.175-.016-.195-.046a6.492 6.492 0 01-.573-.989c-.014-.031-.022-.11.059-.19l.815-.806c.411-.406.562-.957.53-1.456a4.587 4.587 0 010-.582c.032-.499-.119-1.05-.53-1.456l-.815-.806c-.08-.08-.073-.159-.059-.19a6.44 6.44 0 01.573-.99c.02-.029.086-.075.195-.045l1.103.303c.559.153 1.112.008 1.529-.27.16-.107.327-.204.5-.29.449-.222.851-.628.998-1.189l.289-1.105c.029-.11.101-.143.137-.146zM8 0c-.236 0-.47.01-.701.03-.743.065-1.29.615-1.458 1.261l-.29 1.106c-.017.066-.078.158-.211.224a5.994 5.994 0 00-.668.386c-.123.082-.233.09-.3.071L3.27 2.776c-.644-.177-1.392.02-1.82.63a7.977 7.977 0 00-.704 1.217c-.315.675-.111 1.422.363 1.891l.815.806c.05.048.098.147.088.294a6.084 6.084 0 000 .772c.01.147-.038.246-.088.294l-.815.806c-.474.469-.678 1.216-.363 1.891.2.428.436.835.704 1.218.428.609 1.176.806 1.82.63l1.103-.303c.066-.019.176-.011.299.071.213.143.436.272.668.386.133.066.194.158.212.224l.289 1.106c.169.646.715 1.196 1.458 1.26a8.094 8.094 0 001.402 0c.743-.064 1.29-.614 1.458-1.26l.29-1.106c.017-.066.078-.158.211-.224a5.98 5.98 0 00.668-.386c.123-.082.233-.09.3-.071l1.102.302c.644.177 1.392-.02 1.82-.63.268-.382.505-.789.704-1.217.315-.675.111-1.422-.364-1.891l-.814-.806c-.05-.048-.098-.147-.088-.294a6.1 6.1 0 000-.772c-.01-.147.039-.246.088-.294l.814-.806c.475-.469.679-1.216.364-1.891a7.992 7.992 0 00-.704-1.218c-.428-.609-1.176-.806-1.82-.63l-1.103.303c-.066.019-.176.011-.299-.071a5.991 5.991 0 00-.668-.386c-.133-.066-.194-.158-.212-.224L10.16 1.29C9.99.645 9.444.095 8.701.031A8.094 8.094 0 008 0zm1.5 8a1.5 1.5 0 11-3 0 1.5 1.5 0 013 0zM11 8a3 3 0 11-6 0 3 3 0 016 0z"/></svg>
